X: 11272
T: WHO'LL BUY A HEART?
C: Copyright.
Q: "Quick and spirited."
%R: air, march
B: W. Hamilton "Universal Tune-Book" Vol. 1 Glasgow 1844 p.127 #2
S: http://imslp.org/wiki/Hamilton's_Universal_Tune-Book_(Various)
Z: 2016 John Chambers <jc:trillian.mit.edu>
M: C
L: 1/8
K: F
%%stretchstaff 0
% - - - - - - - - - - - - - - - - - - - - - - - - -
[|\
f4 c2B2 | A4 z3c | (fefe fefe) | .f2.g2 z2z2 |\
f4 e2d2 | c4 z3d | (cdcB ABAG) | .A2.F2 "^Fin."z2z2 H|]\
f4 e2f2 | g4 z3a | b2b2 a2g2 | .g2.a2 z2z2 |
f4 e2d2 | c4 z3d | (c2A2) (B2A2) | .G2.F2 z2z2 |]\
[K: Bb] "^Minore"F4 A2B2 | c4 z3d | edce dcBe | .c2.c2 z2z2 |\
g4 ^f2g2 | d4 z3c | BGA^F (GBAF) | G4 "^D.C."z2z2 |]
% - - - - - - - - - - - - - - - - - - - - - - - - -

%%sep 1 1 500
%%sep 1 1 500

